src/apps/scalable/com.interversehq.qView.svg

<svg xmlns="http://www.w3.org/2000/svg" viewBox="0 0 63.999998 64" width="64" height="64">
   <defs>
      <filter id="filter1178" x="-.048" y="-.048" width="1.096" height="1.096" color-interpolation-filters="sRGB">
         <feGaussianBlur stdDeviation="0.30691955"/>
      </filter>
      <linearGradient id="linearGradient1340" x1="8.5011" x2="8.489" y1="16.007" y2=".79375" gradientUnits="userSpaceOnUse">
         <stop stop-color="#2e3440" offset="0"/>
         <stop stop-color="#4c566a" offset="1"/>
      </linearGradient>
   </defs>
   <title>vector</title>
   <g stroke-linecap="round" stroke-linejoin="round" transform="matrix(3.779602,0,0,3.779602,-0.02891,-0.11902)">
     <rect transform="matrix(0.99138,0,0,1,0.072989,0.0019055)" x="0.79374999" y="0.90544999" width="15.346" height="15.346" rx="3.0525999" ry="3.0525999" filter="url(#filter1178)" opacity="0.15" stroke-width="1.2489"/>
     <rect x="0.92603999" y="0.92603999" width="15.081" height="15.081" rx="3" ry="3" fill="url(#linearGradient1340)" stroke-width="1.2274"/>
     <rect x="0.01215" y="0.0060174" width="16.924" height="16.927" fill="none" opacity="0.15" stroke-width="1.052"/>
   </g>
   <path id="circle13-6" d="M 31.999994,9.9564134 A 22.043587,22.04359 0 0 0 9.9564114,31.999955 22.043587,22.04359 0 0 0 31.999994,54.043587 22.043587,22.04359 0 0 0 54.043585,31.999955 22.043587,22.04359 0 0 0 31.999994,9.9564134 Z m 0,1.8697386 A 20.173818,20.173822 0 0 1 52.17382,31.999955 20.173818,20.173822 0 0 1 31.999994,52.173848 20.173818,20.173822 0 0 1 11.826176,31.999955 20.173818,20.173822 0 0 1 31.999994,11.826152 Z" fill="#ffffff"/>
   <path d="m 17.13772,41.40015 v -3.5839 c 0,-0.2348 0.11769,-0.4702 0.23484,-0.6465 l 9.10345,-9.8698 c 0.35253,-0.4111 0.99848,-0.4111 1.40958,-0.059 l 6.63903,6.5202 a 1.0725219,1.0725219 0 0 0 1.41014,0 l 2.58709,-2.5843 c 0.4111,-0.4111 0.99903,-0.3526 1.41013,0 l 6.63793,6.933 a 0.97306081,0.97306081 0 0 1 0.29562,0.705 v 2.5849 c 0,0.5288 -0.46968,0.9985 -0.99848,0.9985 H 18.13509 c -0.58792,0 -0.99737,-0.4111 -0.99737,-0.9985 z" fill="#ffffff" transform="matrix(0.95841681,0,0,0.95841681,1.3306621,1.3306622)"/>
   <circle cx="40.283966" cy="24.244881" r="2.6440067" fill="#ffffff" transform="matrix(0.95841681,0,0,0.95841681,1.3306621,1.3306622)"/>
 </svg>

<?xml version="1.0" encoding="UTF-8"?>
<svg width="64" height="64" version="1.1" viewBox="0 0 64 64" xmlns="http://www.w3.org/2000/svg" xmlns:cc="http://creativecommons.org/ns#" xmlns:dc="http://purl.org/dc/elements/1.1/" xmlns:rdf="http://www.w3.org/1999/02/22-rdf-syntax-ns#">
 <defs>
  <filter id="filter1178" x="-.048" y="-.048" width="1.096" height="1.096" color-interpolation-filters="sRGB">
   <feGaussianBlur stdDeviation="0.30691955"/>
  </filter>
  <linearGradient id="linearGradient1340" x1="8.5011" x2="8.489" y1="16.007" y2=".79375" gradientTransform="matrix(3.7796 0 0 3.7796 -.02891 -.11902)" gradientUnits="userSpaceOnUse">
   <stop stop-color="#2e3440" offset="0"/>
   <stop stop-color="#4c566a" offset="1"/>
  </linearGradient>
 </defs>
 <title>vector</title>
 <g stroke-linecap="round" stroke-linejoin="round">
  <rect transform="matrix(3.747 0 0 3.7796 .24696 -.11182)" x=".79375" y=".90545" width="15.346" height="15.346" rx="3.0526" ry="3.0526" filter="url(#filter1178)" opacity=".15" stroke-width="1.2489"/>
  <rect x="3.4712" y="3.381" width="57" height="57" rx="11.339" ry="11.339" fill="url(#linearGradient1340)" stroke-width="4.6391"/>
  <rect x=".017012" y="-.096277" width="63.966" height="63.977" fill="none" opacity=".15" stroke-width="3.9761"/>
 </g>
 <path d="m32 9.9564a22.044 22.044 0 0 0-22.044 22.044 22.044 22.044 0 0 0 22.044 22.044 22.044 22.044 0 0 0 22.044-22.044 22.044 22.044 0 0 0-22.044-22.044zm0 1.8697a20.174 20.174 0 0 1 20.174 20.174 20.174 20.174 0 0 1-20.174 20.174 20.174 20.174 0 0 1-20.174-20.174 20.174 20.174 0 0 1 20.174-20.174z" fill="#eceff4"/>
 <path transform="matrix(.95842 0 0 .95842 1.3307 1.3307)" d="m17.138 41.4v-3.5839c0-0.2348 0.11769-0.4702 0.23484-0.6465l9.1034-9.8698c0.35253-0.4111 0.99848-0.4111 1.4096-0.059l6.639 6.5202a1.0725 1.0725 0 0 0 1.4101 0l2.5871-2.5843c0.4111-0.4111 0.99903-0.3526 1.4101 0l6.6379 6.933a0.97306 0.97306 0 0 1 0.29562 0.705v2.5849c0 0.5288-0.46968 0.9985-0.99848 0.9985h-27.732c-0.58792 0-0.99737-0.4111-0.99737-0.9985z" fill="#eceff4"/>
 <circle transform="matrix(.95842 0 0 .95842 1.3307 1.3307)" cx="40.284" cy="24.245" r="2.644" fill="#fff"/>
 <metadata>
  <rdf:RDF>
   <cc:Work rdf:about="">
    <dc:title>vector</dc:title>
   </cc:Work>
  </rdf:RDF>
 </metadata>
</svg>
